X: 1
M:9/8
L:1/8
K:G
g2 e g2 e edB|f2 d ded fga|g2 e g2 e edB|dBA ABd e3|
g2 e g2 e edB|f2 d ded fga|g2 e f2 d edB|BdB AGF E3||

